icons/solid/rectangle-group.svg

<svg width="24" height="24" viewBox="0 0 24 24" fill="none" xmlns="http://www.w3.org/2000/svg">
<path fill-rule="evenodd" clip-rule="evenodd" d="M1.5 7.125C1.5 6.08947 2.33947 5.25 3.375 5.25H9.375C10.4105 5.25 11.25 6.08947 11.25 7.125V10.875C11.25 11.9105 10.4105 12.75 9.375 12.75H3.375C2.33947 12.75 1.5 11.9105 1.5 10.875V7.125ZM13.5 8.625C13.5 7.58947 14.3395 6.75 15.375 6.75H20.625C21.6605 6.75 22.5 7.58947 22.5 8.625V16.875C22.5 17.9105 21.6605 18.75 20.625 18.75H15.375C14.3395 18.75 13.5 17.9105 13.5 16.875V8.625ZM3 16.125C3 15.0895 3.83947 14.25 4.875 14.25H10.125C11.1605 14.25 12 15.0895 12 16.125V18.375C12 19.4105 11.1605 20.25 10.125 20.25H4.875C3.83947 20.25 3 19.4105 3 18.375V16.125Z" fill="#0F172A"/>
</svg>

<svg xmlns="http://www.w3.org/2000/svg" viewBox="0 0 24 24" fill="currentColor" aria-hidden="true" data-slot="icon">
  <path fill-rule="evenodd" d="M1.5 7.125c0-1.036.84-1.875 1.875-1.875h6c1.036 0 1.875.84 1.875 1.875v3.75c0 1.036-.84 1.875-1.875 1.875h-6A1.875 1.875 0 0 1 1.5 10.875v-3.75Zm12 1.5c0-1.036.84-1.875 1.875-1.875h5.25c1.035 0 1.875.84 1.875 1.875v8.25c0 1.035-.84 1.875-1.875 1.875h-5.25a1.875 1.875 0 0 1-1.875-1.875v-8.25ZM3 16.125c0-1.036.84-1.875 1.875-1.875h5.25c1.036 0 1.875.84 1.875 1.875v2.25c0 1.035-.84 1.875-1.875 1.875h-5.25A1.875 1.875 0 0 1 3 18.375v-2.25Z" clip-rule="evenodd"/>
</svg>
